packages/icons/src/svg/activity.svg

<svg xmlns="http://www.w3.org/2000/svg" viewBox="0 0 16 16">
	<path d="M14 7l-1-3h-2l-2 7L7 0H5L3 8H0v2h5l1-5 2 11h2l2-10 1 3h3V7z"/>
</svg>

<svg xmlns="http://www.w3.org/2000/svg" viewBox="0 0 16 16"><path d="M14,7,13,4H11L9,11,7,0H5L3,8H0v2H5L6,5,8,16H9.99988L12,6l1,3h3V7Z"/></svg>
